svgs/solid/vr-cardboard.svg

<svg xmlns="http://www.w3.org/2000/svg" viewBox="0 0 640 512"><!-- Font Awesome Pro 6.0.0-alpha2 by @fontawesome - https://fontawesome.com License - https://fontawesome.com/license (Commercial License) --><path d="M576 64H64C28.801 64 0 92.797 0 128V384C0 419.199 28.801 448 64 448H192.25C217.432 448 240.275 433.234 250.615 410.273L278.375 348.625C286.25 331.125 302.375 320 320 320S353.75 331.125 361.625 348.625L389.375 410.25C399.721 433.227 422.578 448 447.775 448H576C611.199 448 640 419.199 640 384V128C640 92.797 611.199 64 576 64ZM160 304C124.625 304 96 275.375 96 240S124.625 176 160 176S224 204.625 224 240S195.375 304 160 304ZM480 304C444.625 304 416 275.375 416 240S444.625 176 480 176S544 204.625 544 240S515.375 304 480 304Z"/></svg>

<svg xmlns="http://www.w3.org/2000/svg" viewBox="0 0 640 512"><!--! Font Awesome Pro 6.0.0-alpha3 by @fontawesome - https://fontawesome.com License - https://fontawesome.com/license (Commercial License) --><path d="M576 64H64c-35.2 0-64 28.8-64 64v256c0 35.2 28.8 64 64 64l128.3 .0001c25.18 0 48.03-14.77 58.37-37.73l27.76-61.65c7.875-17.5 24-28.63 41.63-28.63s33.75 11.13 41.63 28.63l27.75 61.63c10.35 22.98 33.2 37.75 58.4 37.75L576 448c35.2 0 64-28.8 64-64v-256C640 92.8 611.2 64 576 64zM160 304c-35.38 0-64-28.63-64-64s28.62-63.1 64-63.1s64 28.62 64 63.1S195.4 304 160 304zM480 304c-35.38 0-64-28.63-64-64s28.62-63.1 64-63.1s64 28.62 64 63.1S515.4 304 480 304z"/></svg>
